!!!SOCIAL_FUNCTION:	songs of the bear dance
!!!PDT:	1922
!!!OTL: No_8_Bear_Dance_Song_(d).krn
!!!REG: Southwest
!!!LANG: Non-Tone
!!!LING_GROUP: Uto-Aztecan
**kern
*staff1
*clefF4
*k[b-e-]
*M2/4
16r
16d\LK
8.d\
16d\Jk
=1
2f\
=2
2f\
=3||
*M3/4
8.d\L
16B-\Jk
8.B-\L
16F\Jk
8.F\L
16F\Jk
=4
4..F\
16d\
8.d\L
16d\Jk
=5||
*M2/4
2f\
=6
2f\
=7||
*M3/4
8.d\L
16B-\Jk
8.B-\L
16F\Jk
8.F\L
16F\Jk
=8
(2F\
8.F\L)
16d\Jk
=9||
*M2/4
8.d\L
16d\Jk
8.c\L
16e-\Jk
=10
8.d\L
16d\Jk
8.c\L
16d\Jk
=11
16B-\LK
8.F\J
8.F\L
16F\Jk
=12
2F\
=13
2r
=14||
*M3/4
2r
8.r
16d\
=15||
*M2/4
8.d\L
16d\Jk
8.c\L
16e-\Jk
=16
8.d\L
16d\Jk
8.c\L
16d\Jk
=17
16B-\LK
8.F\J
8.F\L
16F\Jk
=18||
*M3/4
[2F\
8.F\L]
16G\Jk
=19||
*M2/4
8.G\L
16G\Jk
8.F\L
16G\Jk
=20||
*M3/4
8.G\L
16G\Jk
8.F\L
16G\Jk
8.F\L
16F\Jk
=21||
*M2/4
4.F\
8F\
=22
4.F\
8F\
=23
[2F\
=24
8.F\]
16r
4r
==
*-
